X: 2609
T: Baltighoran, The
R: slip jig
M: 9/8
K: Dmixolydian
|:A|~|:A/G/|~|:a|~|:a/g/|~
|:E|~|:E/G/|~|:e|~|:e/g/|f2 d d^cd AF/E/D|~
|:D|~|:D/E/|~|:d|~|:d/e/|~
~|GFG EcB c2:|~|G2 G EcB c2:|
~|cGB AGF c2:|~|c2 B AFD c2:|
~|BGG AGF c2:|~|B2 G AGF c2:|
~|EGd B/c/dB c2|~|E2 d BdB c2:|

